X: 36934
T: Short Grass, The
R: jig
M: 6/8
K: Cmajor
cGE cGE|EDE Ced|cGE cGE|Ddd ded|
cGE cGE|EDE CEG|cee ged|1 cGA A2B:|2 cAA A3||
|:G2g ged|ecc ceg|~a3 age|edd def|
~g3 ged|ecc cde|fed e2d|1 cAA A3:|2 cGA A2B||

